Sources/FrostedUI/Resources/Icons.xcassets/hourGlass16.imageset/hour-glass-16.svg

<svg width="16" height="16" viewBox="0 0 16 16" fill="none" xmlns="http://www.w3.org/2000/svg" data-fui-icon="true">
  <path
    d="M12.0005 0.25C12.9511 0.250214 13.7877 1.03378 13.7144 2.05469C13.621 3.35319 13.352 4.3233 12.9722 5.0752C12.5892 5.83316 12.1129 6.33052 11.6665 6.7041C11.4504 6.88489 11.2361 7.04014 11.0649 7.16699C10.884 7.30107 10.7539 7.40193 10.6509 7.5C10.4805 7.66235 10.4175 7.78123 10.4175 8C10.4175 8.21877 10.4805 8.33765 10.6509 8.5C10.7539 8.59807 10.884 8.69893 11.0649 8.83301C11.2361 8.95986 11.4504 9.11512 11.6665 9.2959C12.1129 9.66948 12.5892 10.1668 12.9722 10.9248C13.352 11.6767 13.621 12.6468 13.7144 13.9453C13.7877 14.9662 12.9511 15.7498 12.0005 15.75H4.00049C3.04967 15.75 2.21323 14.9664 2.28662 13.9453C2.37998 12.6467 2.64889 11.6767 3.02881 10.9248C3.41185 10.1668 3.88806 9.66948 4.33447 9.2959C4.55055 9.11511 4.76485 8.95985 4.93604 8.83301C5.11697 8.69894 5.24712 8.59809 5.3501 8.5C5.52035 8.33775 5.5835 8.21868 5.5835 8C5.5835 7.78132 5.52035 7.66225 5.3501 7.5C5.24712 7.40191 5.11697 7.30106 4.93604 7.16699C4.76485 7.04015 4.55055 6.88489 4.33447 6.7041C3.88806 6.33052 3.41185 5.83321 3.02881 5.0752C2.64889 4.32329 2.37998 3.35327 2.28662 2.05469C2.21323 1.03363 3.04967 0.25 4.00049 0.25H12.0005ZM4.00049 1.75C3.9301 1.75 3.87054 1.7786 3.83154 1.81836C3.79477 1.85604 3.77928 1.8995 3.78271 1.94727C3.86514 3.09354 4.09615 3.86096 4.36768 4.39844C4.63606 4.92953 4.96309 5.274 5.29736 5.55371C5.47144 5.69936 5.64317 5.82378 5.82959 5.96191C6.00614 6.09274 6.2066 6.24386 6.38525 6.41406C6.77834 6.78868 7.0835 7.27862 7.0835 8C7.0835 8.72138 6.77834 9.21132 6.38525 9.58594C6.2066 9.75614 6.00614 9.90726 5.82959 10.0381C5.64317 10.1762 5.47144 10.3006 5.29736 10.4463C4.96309 10.726 4.63606 11.0705 4.36768 11.6016C4.09615 12.139 3.86514 12.9065 3.78271 14.0527C3.77928 14.1005 3.79476 14.144 3.83154 14.1816C3.87054 14.2214 3.9301 14.25 4.00049 14.25H12.0005C12.0708 14.2499 12.1305 14.2214 12.1694 14.1816C12.2061 14.144 12.2217 14.1004 12.2183 14.0527C12.1358 12.9066 11.9048 12.139 11.6333 11.6016C11.365 11.0705 11.0378 10.726 10.7036 10.4463C10.5295 10.3006 10.3578 10.1762 10.1714 10.0381C9.99485 9.90727 9.79441 9.75615 9.61572 9.58594C9.22253 9.21129 8.91748 8.72151 8.91748 8C8.91748 7.27849 9.22253 6.78871 9.61572 6.41406C9.79441 6.24385 9.99485 6.09273 10.1714 5.96191C10.3578 5.8238 10.5295 5.69937 10.7036 5.55371C11.0378 5.274 11.365 4.9295 11.6333 4.39844C11.9048 3.86096 12.1358 3.09345 12.2183 1.94727C12.2217 1.89959 12.2061 1.85598 12.1694 1.81836C12.1305 1.77857 12.0708 1.7501 12.0005 1.75H4.00049ZM10.4995 3C10.7756 3 11.004 3.22836 10.9194 3.49121C10.636 4.3719 9.64203 5.20736 8.54736 5.75391C8.20276 5.92595 7.79724 5.92595 7.45264 5.75391C6.35803 5.20736 5.36399 4.37186 5.08057 3.49121C4.99605 3.22839 5.22438 3 5.50049 3H10.4995Z"
    fill="currentColor"
  />
</svg>

<svg xmlns="http://www.w3.org/2000/svg" width="16" height="16" fill="none" data-fui-icon="true" viewBox="0 0 16 16"><path fill="currentColor" d="M12 .25c.951 0 1.788.784 1.714 1.805-.093 1.298-.362 2.268-.742 3.02a5 5 0 0 1-1.306 1.63c-.216.18-.43.335-.601.462-.181.134-.311.235-.414.333-.17.162-.233.281-.233.5s.063.338.233.5c.103.098.233.199.414.333.171.127.385.282.601.463.447.373.923.87 1.306 1.629.38.752.649 1.722.742 3.02.074 1.021-.763 1.805-1.713 1.805H4c-.951 0-1.788-.784-1.714-1.805.093-1.298.362-2.268.742-3.02a5 5 0 0 1 1.305-1.63c.217-.18.43-.335.602-.462.181-.134.311-.235.414-.333.17-.162.234-.281.234-.5s-.064-.338-.234-.5a5 5 0 0 0-.414-.333c-.171-.127-.385-.282-.602-.463A5 5 0 0 1 3.03 5.075c-.38-.752-.649-1.722-.742-3.02C2.213 1.034 3.05.25 4 .25zm-8 1.5c-.07 0-.13.029-.168.068a.16.16 0 0 0-.05.13c.083 1.146.314 1.913.586 2.45.268.532.595.876.93 1.156.173.145.345.27.532.408.176.13.377.282.555.452.393.375.699.865.699 1.586s-.306 1.211-.699 1.586c-.178.17-.379.321-.555.452-.187.138-.359.263-.533.408-.334.28-.66.624-.93 1.156-.27.537-.502 1.304-.584 2.45a.16.16 0 0 0 .049.13c.039.04.098.068.168.068h8c.07 0 .13-.029.17-.068a.16.16 0 0 0 .048-.13c-.082-1.145-.313-1.913-.585-2.45a3.5 3.5 0 0 0-.93-1.156c-.173-.145-.345-.27-.532-.408a6 6 0 0 1-.555-.452C9.223 9.21 8.917 8.722 8.917 8s.306-1.211.699-1.586c.178-.17.379-.321.555-.452.187-.138.359-.263.533-.408.334-.28.661-.625.93-1.156.27-.537.502-1.305.584-2.45a.16.16 0 0 0-.049-.13.24.24 0 0 0-.168-.068zM10.5 3c.276 0 .504.228.42.491-.284.88-1.278 1.716-2.373 2.263-.344.172-.75.172-1.094 0C6.358 5.207 5.364 4.372 5.08 3.49 4.996 3.228 5.224 3 5.5 3z"/></svg>
